X:1
T: Allen's Reel
N:
C:
S:
A:
O:
R:
M:6/8
K:C
I:speed 180
%W:
% voice 1 (1 lines, 39 notes)
K:C
M:6/8
L:1/16
G2 |c4 c2 c2 B2 c2 d4 B2 G4 G2 A4 A2 B2 A2 B2 c2 G2 F2 E2 D2 C2 |c4 c2 c2 B2 c2 d4 B2 G4 G2 A4 A2 B2 A2 B2 c4 c2 c4 G2 |
%W:
% voice 1 (1 lines, 38 notes)
c4 c2 c2 B2 c2 d4 B2 G4 G2 A4 A2 B2 A2 B2 c2 G2 F2 E2 D2 C2 |c4 c2 c2 B2 c2 d4 B2 G4 G2 A4 A2 B2 A2 B2 c4 c2 c4 G2 |
%W:
% voice 1 (1 lines, 38 notes)
c4 G2 E4 G2 e4 c2 c2 d2 e2 f4 d2 e4 c2 d2 d2 d2 d4 G2 |c4 G2 E4 G2 e4 c2 c2 d2 e2 f2 a2 g2 f2 e2 d2 c2 c2 c2 c4 G2 |
%W:
% voice 1 (1 lines, 37 notes)
c4 G2 E4 G2 e4 c2 c2 d2 e2 f4 d2 e4 c2 d2 d2 d2 d4 G2 |c4 G2 E4 G2 e4 c2 c2 d2 e2 f2 a2 g2 f2 e2 d2 c2 c2 c2 c4 ||
